assets/img/asot/event.svg

<?xml version="1.0" encoding="utf-8"?>
<!-- Generator: Adobe Illustrator 16.0.4, SVG Export Plug-In . SVG Version: 6.00 Build 0)  -->
<!DOCTYPE svg PUBLIC "-//W3C//DTD SVG 1.1//EN" "http://www.w3.org/Graphics/SVG/1.1/DTD/svg11.dtd">
<svg version="1.1" id="Layer_1" xmlns="http://www.w3.org/2000/svg" xmlns:xlink="http://www.w3.org/1999/xlink" x="0px" y="0px"
	 width="45px" height="53px" viewBox="0 0 45 53" enable-background="new 0 0 45 53" xml:space="preserve">
<title>Group</title>
<desc>Created with Sketch.</desc>
<g id="Page-1">
	<g id="Group">
		<polygon id="Fill-1" fill="#2DFF8F" points="0,0.5 0,45.5 15,45.5 22.5,53 30,45.5 45,45.5 45,0.5 		"/>
		<path id="ASOT" d="M15.252,27h-2.748l-0.288-0.936h-2.88L9.048,27H6.3l2.952-8.004H12.3L15.252,27z M11.568,23.952l-0.792-2.58
			l-0.792,2.58H11.568z M18.792,27.145c-1.704,0-2.868-0.504-3.72-1.272l1.26-1.8c0.6,0.576,1.5,1.032,2.58,1.032
			c0.456,0,0.888-0.12,0.888-0.432c0-0.768-4.464,0.012-4.464-3.144c0-1.356,1.128-2.652,3.324-2.652
			c1.308,0,2.484,0.372,3.396,1.116l-1.296,1.716c-0.696-0.528-1.596-0.792-2.352-0.792c-0.48,0-0.612,0.156-0.612,0.36
			c0,0.756,4.452,0.108,4.452,3.084C22.248,26.124,20.94,27.145,18.792,27.145z M26.988,27.145c-2.473,0-4.38-1.681-4.38-4.141
			s1.908-4.14,4.38-4.14c2.472,0,4.38,1.68,4.38,4.14S29.46,27.145,26.988,27.145z M26.988,25.008c1.164,0,1.92-0.888,1.92-2.004
			c0-1.116-0.756-2.004-1.92-2.004s-1.92,0.888-1.92,2.004C25.068,24.12,25.824,25.008,26.988,25.008z M36.132,27v-5.892h2.136
			v-2.112h-6.707v2.112h2.147V27H36.132z"/>
	</g>
</g>
</svg>

<?xml version="1.0" encoding="UTF-8"?>
<svg width="45px" height="53px" viewBox="0 0 45 53" version="1.1" xmlns="http://www.w3.org/2000/svg" xmlns:xlink="http://www.w3.org/1999/xlink">
    <!-- Generator: Sketch 45.2 (43514) - http://www.bohemiancoding.com/sketch -->
    <title>Group</title>
    <desc>Created with Sketch.</desc>
    <defs></defs>
    <g id="Page-1" stroke="none" stroke-width="1" fill="none" fill-rule="evenodd">
        <g id="Group">
            <polygon id="Fill-1" fill="#00F3EC" fill-rule="nonzero" points="0 0.5003 0 45.5003 15 45.5003 22.5 53.0003 30 45.5003 45 45.5003 45 0.5003"></polygon>
            <path d="M15.252,27 L12.504,27 L12.216,26.064 L9.336,26.064 L9.048,27 L6.3,27 L9.252,18.996 L12.3,18.996 L15.252,27 Z M11.568,23.952 L10.776,21.372 L9.984,23.952 L11.568,23.952 Z M18.792,27.144 C17.088,27.144 15.924,26.64 15.072,25.872 L16.332,24.072 C16.932,24.648 17.832,25.104 18.912,25.104 C19.368,25.104 19.8,24.984 19.8,24.672 C19.8,23.904 15.336,24.684 15.336,21.528 C15.336,20.172 16.464,18.876 18.66,18.876 C19.968,18.876 21.144,19.248 22.056,19.992 L20.76,21.708 C20.064,21.18 19.164,20.916 18.408,20.916 C17.928,20.916 17.796,21.072 17.796,21.276 C17.796,22.032 22.248,21.384 22.248,24.36 C22.248,26.124 20.94,27.144 18.792,27.144 Z M26.988,27.144 C24.516,27.144 22.608,25.464 22.608,23.004 C22.608,20.544 24.516,18.864 26.988,18.864 C29.46,18.864 31.368,20.544 31.368,23.004 C31.368,25.464 29.46,27.144 26.988,27.144 Z M26.988,25.008 C28.152,25.008 28.908,24.12 28.908,23.004 C28.908,21.888 28.152,21 26.988,21 C25.824,21 25.068,21.888 25.068,23.004 C25.068,24.12 25.824,25.008 26.988,25.008 Z M36.132,27 L36.132,21.108 L38.268,21.108 L38.268,18.996 L31.56,18.996 L31.56,21.108 L33.708,21.108 L33.708,27 L36.132,27 Z" id="ASOT" fill="#000000"></path>
        </g>
    </g>
</svg>
